X: 10583
Q: "Allegretto."
M: C|
L: 1/16
K: D
d4 d4 z2(ba gfed) | (c2B2) B4 z2(gf edcB) |\
(B2A2) A4 z2A2B2c2 | e4 d4 z2 :|\
(a2g2) e4 z2A2e2g2 | (g2f2) d4 z2A2d2f2 |
(a2g2) e4 (g2f2) d4 | Ha8 z2A2B2c2 |\
d4 d4 z2(ba gfed) | (c2B2) B4 z2(gf edcB) |\
(B2A2) A4 z2A2B2c2 | {e}d8 z2 |]


